svgs/regular/money-bill-1-wave.svg

<svg xmlns="http://www.w3.org/2000/svg" viewBox="0 0 576 512"><!--! Font Awesome Pro 6.3.0 by @fontawesome - https://fontawesome.com License - https://fontawesome.com/license (Commercial License) Copyright 2023 Fonticons, Inc. --><path d="M265.7 407.9c4.5-1.1 9-2.3 13.5-3.4l0 0c55.9-14.3 119.4-30.6 185.3-28.7c4.1-31.4 30.9-55.7 63.5-55.7V144c-35.3 0-63.9-28.6-64-63.9c-47-1.7-96.8 9.5-153.7 24c-4.5 1.1-9 2.3-13.5 3.5l0 0c-55.9 14.3-119.4 30.6-185.3 28.7C107.4 167.7 80.5 192 48 192V368c35.3 0 63.9 28.6 64 63.9c47 1.7 96.8-9.5 153.7-24zM0 421.5V113C0 88.8 25.4 72.7 48.4 79C128.2 101 208.1 80.6 288 60.3c86.9-22.1 173.8-44.3 260.7-12C565.8 54.6 576 72 576 90.5V399c0 24.3-25.4 40.3-48.3 34C447.8 411 367.9 431.4 288 451.7c-86.9 22.1-173.8 44.3-260.7 12C10.2 457.4 0 440 0 421.5zM384 256c0 61.9-43 112-96 112s-96-50.1-96-112s43-112 96-112s96 50.1 96 112zM256 208c0 8.8 7.2 16 16 16v64h-8c-8.8 0-16 7.2-16 16s7.2 16 16 16h24 24c8.8 0 16-7.2 16-16s-7.2-16-16-16h-8V208c0-8.8-7.2-16-16-16H272c-8.8 0-16 7.2-16 16z"/></svg>

<svg xmlns="http://www.w3.org/2000/svg" viewBox="0 0 576 512"><!--! Font Awesome Pro 6.2.0 by @fontawesome - https://fontawesome.com License - https://fontawesome.com/license (Commercial License) Copyright 2022 Fonticons, Inc. --><path d="M384 256C384 317.9 341 368 288 368C234.1 368 192 317.9 192 256C192 194.1 234.1 144 288 144C341 144 384 194.1 384 256zM272 224V288H264C255.2 288 248 295.2 248 304C248 312.8 255.2 320 264 320H312C320.8 320 328 312.8 328 304C328 295.2 320.8 288 312 288H304V208C304 199.2 296.8 192 288 192H272C263.2 192 256 199.2 256 208C256 216.8 263.2 224 272 224zM0 421.5V113C0 88.79 25.38 72.73 48.35 79.04C128.2 100.1 208.1 80.61 288 60.25C374.9 38.1 461.8 15.95 548.7 48.26C565.8 54.6 576 71.96 576 90.5V398.1C576 423.2 550.6 439.3 527.7 432.1C447.8 411 367.9 431.4 288 451.7C201.1 473.9 114.2 496 27.29 463.7C10.21 457.4 0 440 0 421.5V421.5zM279.2 404.4C335.1 390.1 398.6 373.9 464.5 375.7C468.6 344.3 495.5 320 528 320V144C492.7 144 464.1 115.4 464 80.14C417 78.44 367.2 89.66 310.3 104.1C305.9 105.2 301.4 106.4 296.8 107.6C240.9 121.9 177.4 138.1 111.5 136.3C107.4 167.7 80.53 192 48 192V368C83.3 368 111.9 396.6 112 431.9C158.1 433.6 208.8 422.3 265.7 407.9C270.1 406.8 274.6 405.6 279.2 404.4H279.2z"/></svg>
